fs/news_20_regular.svg

<svg viewBox="0 0 20 20" fill="none" xmlns="http://www.w3.org/2000/svg" height="1em" width="1em">
  <path d="M5 6.5C5 6.22386 5.22386 6 5.5 6H12.5C12.7761 6 13 6.22386 13 6.5C13 6.77614 12.7761 7 12.5 7H5.5C5.22386 7 5 6.77614 5 6.5ZM10.5 9C10.2239 9 10 9.22386 10 9.5C10 9.77614 10.2239 10 10.5 10H12.5C12.7761 10 13 9.77614 13 9.5C13 9.22386 12.7761 9 12.5 9H10.5ZM10 12.5C10 12.2239 10.2239 12 10.5 12H12.5C12.7761 12 13 12.2239 13 12.5C13 12.7761 12.7761 13 12.5 13H10.5C10.2239 13 10 12.7761 10 12.5ZM5.5 9C5.22386 9 5 9.22386 5 9.5V12.5C5 12.7761 5.22386 13 5.5 13H8.5C8.77614 13 9 12.7761 9 12.5V9.5C9 9.22386 8.77614 9 8.5 9H5.5ZM6 12V10H8V12H6ZM2 5C2 3.89543 2.89543 3 4 3H14C15.1046 3 16 3.89543 16 5V6C17.1046 6 18 6.89543 18 8V13.5C18 14.8807 16.8807 16 15.5 16H4.5C3.11929 16 2 14.8807 2 13.5V5ZM15 5C15 4.44772 14.5523 4 14 4L4 4C3.44771 4 3 4.44772 3 5L3 13.5C3 14.3284 3.67157 15 4.5 15H15.5C16.3284 15 17 14.3284 17 13.5V8C17 7.44772 16.5523 7 16 7V13.5C16 13.7761 15.7761 14 15.5 14C15.2239 14 15 13.7761 15 13.5V5Z" fill="#212121"/>
</svg>

<svg viewBox="0 0 20 20" fill="none" xmlns="http://www.w3.org/2000/svg" height="1em" width="1em">
  <path d="M5 6.5a.5.5 0 0 1 .5-.5h7a.5.5 0 0 1 0 1h-7a.5.5 0 0 1-.5-.5ZM10.5 9a.5.5 0 0 0 0 1h2a.5.5 0 0 0 0-1h-2Zm-.5 3.5a.5.5 0 0 1 .5-.5h2a.5.5 0 0 1 0 1h-2a.5.5 0 0 1-.5-.5ZM5.5 9a.5.5 0 0 0-.5.5v3a.5.5 0 0 0 .5.5h3a.5.5 0 0 0 .5-.5v-3a.5.5 0 0 0-.5-.5h-3Zm.5 3v-2h2v2H6ZM2 5a2 2 0 0 1 2-2h10a2 2 0 0 1 2 2v1a2 2 0 0 1 2 2v5.5a2.5 2.5 0 0 1-2.5 2.5h-11A2.5 2.5 0 0 1 2 13.5V5Zm13 0a1 1 0 0 0-1-1H4a1 1 0 0 0-1 1v8.5A1.5 1.5 0 0 0 4.5 15h11a1.5 1.5 0 0 0 1.5-1.5V8a1 1 0 0 0-1-1v6.5a.5.5 0 0 1-1 0V5Z" fill="#212121"/>
</svg>
